X: 7
T: Comb Your Hair And Curl It
R: slip jig
M: 9/8
L: 1/8
K: Edor
|:B2E E2F G2A | B2e ece dBA| B2E E2F G2A | B=cB A2G FED:|
|:g2e efe e2f | g2e efg afd| g2e efe e2c | d2B A2G FED |
g2e efe e2f | g2e efg afd| gfg agf g2e|d2B A2G FED||


Tune 1030	Setting 14255

